docs/.gitbook/assets/icon-check-rosette-16@light.svg

<svg width="32" height="32" viewBox="0 0 16 16" fill="none" xmlns="http://www.w3.org/2000/svg">
<rect x="0" y="0" width="16" height="16" fill="#fff"/>
<path fill-rule="evenodd" clip-rule="evenodd" d="M6.53818 1.63436C7.3287 0.788547 8.67002 0.788546 9.46053 1.63436L10.1198 2.33972C10.2183 2.44519 10.3577 2.5029 10.502 2.49803L11.4669 2.46542C12.6239 2.42632 13.5724 3.37477 13.5333 4.53183L13.5007 5.49676C13.4958 5.64103 13.5535 5.78037 13.659 5.87894L14.3644 6.53818C15.2102 7.3287 15.2102 8.67002 14.3644 9.46053L13.659 10.1198C13.5535 10.2183 13.4958 10.3577 13.5007 10.502L13.5333 11.4669C13.5724 12.6239 12.6239 13.5724 11.4669 13.5333L10.502 13.5007C10.3577 13.4958 10.2183 13.5535 10.1198 13.659L9.46053 14.3644C8.67002 15.2102 7.3287 15.2102 6.53818 14.3644L5.87894 13.659C5.78037 13.5535 5.64103 13.4958 5.49676 13.5007L4.53183 13.5333C3.37477 13.5724 2.42632 12.6239 2.46542 11.4669L2.49803 10.502C2.5029 10.3577 2.44519 10.2183 2.33972 10.1198L1.63436 9.46053C0.788547 8.67002 0.788546 7.3287 1.63436 6.53818L2.33972 5.87894C2.44519 5.78037 2.5029 5.64103 2.49803 5.49676L2.46542 4.53183C2.42632 3.37477 3.37477 2.42632 4.53183 2.46542L5.49676 2.49803C5.64103 2.5029 5.78037 2.44519 5.87894 2.33972L6.53818 1.63436ZM8.36465 2.65859C8.16702 2.44714 7.83169 2.44714 7.63406 2.65859L6.97482 3.36395C6.58054 3.78581 6.02318 4.01668 5.44609 3.99717L4.48117 3.96456C4.1919 3.95479 3.95479 4.1919 3.96456 4.48117L3.99717 5.44609C4.01668 6.02318 3.78581 6.58054 3.36395 6.97482L2.65859 7.63406C2.44714 7.83169 2.44714 8.16702 2.65859 8.36465L3.36395 9.0239C3.78581 9.41817 4.01668 9.97553 3.99717 10.5526L3.96456 11.5175C3.95479 11.8068 4.1919 12.0439 4.48117 12.0342L5.44609 12.0015C6.02318 11.982 6.58054 12.2129 6.97482 12.6348L7.63406 13.3401C7.83169 13.5516 8.16702 13.5516 8.36465 13.3401L9.0239 12.6348C9.41817 12.2129 9.97553 11.982 10.5526 12.0015L11.5175 12.0342C11.8068 12.0439 12.0439 11.8068 12.0342 11.5175L12.0015 10.5526C11.982 9.97553 12.2129 9.41817 12.6348 9.0239L13.3401 8.36465C13.5516 8.16702 13.5516 7.83169 13.3401 7.63406L12.6348 6.97482C12.2129 6.58054 11.982 6.02318 12.0015 5.44609L12.0342 4.48117C12.0439 4.1919 11.8068 3.95479 11.5175 3.96456L10.5526 3.99717C9.97553 4.01668 9.41817 3.78581 9.0239 3.36395L8.36465 2.65859ZM10.301 6.75887C10.3009 6.75892 10.3009 6.75897 10.3008 6.75902L10.3007 6.75912L10.298 6.76214L10.2847 6.77669C10.2726 6.79011 10.2539 6.81088 10.2295 6.83848C10.1806 6.8937 10.1088 6.97612 10.0202 7.08164C9.84269 7.29303 9.59921 7.59516 9.33766 7.95543C8.80502 8.68908 8.23668 9.61083 7.96558 10.4746C7.88704 10.7248 7.68347 10.9159 7.42874 10.9784C7.17401 11.0409 6.90514 10.9658 6.71967 10.7803L5.21967 9.28033C4.92678 8.98744 4.92678 8.51256 5.21967 8.21967C5.51256 7.92678 5.98744 7.92678 6.28033 8.21967L6.98474 8.92408C7.32859 8.23022 7.75193 7.58642 8.12383 7.07417C8.41036 6.6795 8.67651 6.34923 8.87158 6.11696C8.96927 6.00064 9.04954 5.90841 9.10615 5.84444C9.13446 5.81245 9.15688 5.78748 9.17264 5.77008L9.19119 5.74968L9.19654 5.74385L9.1982 5.74204L9.19878 5.74142L9.199 5.74118C9.19909 5.74108 9.19918 5.74098 9.75 6.25L9.19918 5.74098C9.4803 5.43677 9.95481 5.41806 10.259 5.69918C10.5632 5.98026 10.5819 6.45465 10.301 6.75887Z" fill="#000"/>
</svg>

<svg xmlns="http://www.w3.org/2000/svg" width="32" height="32" fill="none" viewBox="0 0 16 16"><path fill="#fff" d="M0 0h16v16H0z"/><path fill="#000" fill-rule="evenodd" d="M6.538 1.634a2 2 0 0 1 2.923 0l.659.706a.5.5 0 0 0 .382.158l.965-.033a2 2 0 0 1 2.066 2.067l-.032.965a.5.5 0 0 0 .158.382l.705.66a2 2 0 0 1 0 2.922l-.705.659a.5.5 0 0 0-.158.382l.032.965a2 2 0 0 1-2.066 2.066l-.965-.032a.5.5 0 0 0-.382.158l-.66.705a2 2 0 0 1-2.922 0l-.66-.705a.5.5 0 0 0-.381-.158l-.965.032a2 2 0 0 1-2.067-2.066l.033-.965a.5.5 0 0 0-.158-.382l-.706-.66a2 2 0 0 1 0-2.922l.706-.66a.5.5 0 0 0 .158-.381l-.033-.965a2 2 0 0 1 2.067-2.067l.965.033a.5.5 0 0 0 .382-.158zM8.365 2.66a.5.5 0 0 0-.73 0l-.66.705a2 2 0 0 1-1.529.633l-.965-.032a.5.5 0 0 0-.516.516l.032.965a2 2 0 0 1-.633 1.529l-.705.66a.5.5 0 0 0 0 .73l.705.659a2 2 0 0 1 .633 1.529l-.032.964a.5.5 0 0 0 .516.517l.965-.033a2 2 0 0 1 1.529.634l.66.705a.5.5 0 0 0 .73 0l.659-.705a2 2 0 0 1 1.529-.633l.964.032a.5.5 0 0 0 .517-.517l-.033-.964a2 2 0 0 1 .634-1.53l.705-.658a.5.5 0 0 0 0-.73l-.705-.66a2 2 0 0 1-.633-1.529l.032-.965a.5.5 0 0 0-.517-.516l-.964.032a2 2 0 0 1-1.53-.633zm1.936 4.1-.003.003-.013.015a8 8 0 0 0-.265.305c-.177.211-.42.513-.682.873-.533.734-1.101 1.656-1.372 2.52a.75.75 0 0 1-1.246.305l-1.5-1.5a.75.75 0 0 1 1.06-1.06l.705.704a13 13 0 0 1 1.139-1.85A17 17 0 0 1 9.173 5.77l.018-.02.006-.006.001-.002H9.2l.551.508-.55-.509A.75.75 0 0 1 10.3 6.759" clip-rule="evenodd"/></svg>
